!!!COM:	Bach, Johann Sebastian
!!!OMV:	O Haupt voll Blut und Wunden
!!!OTL:	O Haupt voll Blut und Wunden
**kern	**fb	**kern	**kern	**kern	**kern
*part5	*part5	*part4	*part3	*part2	*part1
*staff5	*	*staff4	*staff3	*staff2	*staff1
*I"Continuo	*	*I"Voice	*I"Voice	*I"Voice	*I"Voice
*I'Cont.	*	*I'V	*I'V	*I'V	*I'V
*clefF4	*	*clefF4	*clefGv2	*clefG2	*clefG2
*Trd0c0	*	*	*	*	*
*k[b-]	*	*k[b-]	*k[b-]	*k[b-]	*k[b-]
*M4/4	*	*M4/4	*M4/4	*M4/4	*M4/4
8dL	.	8dL	4d	4f	4a
8cJ	.	8cJ	.	.	.
=2	=2	=2	=2	=2	=2
4B-	.	4B-	8dL	8fL	4dd
.	.	.	8eJ	8gJ	.
4A	6	4A	4f	4a	4cc
4G	7	4G	4g	8dL	4b-
.	6	.	.	8eJ	.
4F	.	4F	4c	4f	4a
=3	=3	=3	=3	=3	=3
4BB-	6 5	4BB-	4d	4f	2g
4C	.	4C	4c	4e	.
4F;	.	4F;	4c;	4f;	4a;
4C#X	6	4C#X	4e	4a	4ee
=4	=4	=4	=4	=4	=4
8DL	9	8DL	4e	4a	4ff
8E	.	8E	.	.	.
8F	6	8F	4d	4a	4ff
8GJ	.	8GJ	.	.	.
4A	4	4A	4d	4a	8eeL
.	.	.	.	.	8ddJ
4AA	#	4AA	4c#X	8aL	4ee
.	.	.	.	8gJ	.
=	=	=	=	=	=
2.D;	.	2.D;	2.A;	2.f;	2.dd;
=5:|!	=5:|!	=5:|!	=5:|!	=5:|!	=5:|!
4D	.	4D	8dL	4a	4ff
.	.	.	8cnJ	.	.
=6	=6	=6	=6	=6	=6
4G	6	4G	4B-	4g	8eeL
.	5	.	.	.	8ddJ
4A	7	4A	4c	8gL	4cc
.	6	.	.	8fJ	.
8B-L	.	8B-L	4c	4f	4dd
8AJ	.	8AJ	.	.	.
4G	6	4G	8B-L	4b-	4ee
.	.	.	8cJ	.	.
=7	=7	=7	=7	=7	=7
!!linebreak:original
2F	6 4	2F	4d	4b-	2ff
.	5 3	.	8cL	8aL	.
.	.	.	8B-J	8gJ	.
4F;	.	4F;	4c;	4a;	4ff;
4F	.	4F	8fL	4a	4cc
.	.	.	8e-XJ	.	.
=8	=8	=8	=8	=8	=8
4B-	7	4B-	4d	8aL	4dd
.	6	.	.	8gJ	.
4F#X	6 5	4F#X	4d	4a	4cc
4G	.	4G	4d	8gL	8b-L
.	.	.	.	8f#XJ	8aJ
4GG	.	4GG	4d	4g	4b-
=9	=9	=9	=9	=9	=9
2.D;	#	2.D;	2.d;	2.f#X;	2.a;
4BBn	6 5	4BBn	4d	4g	4ff
=10	=10	=10	=10	=10	=10
4C	.	4C	8cL	4g	8eeL
.	.	.	8dJ	.	8ffJ
8cL	.	8cL	4e	4cc	4gg
8BnJ	.	8BnJ	.	.	.
4A	6	4A	4f	4cc	4ff
4G	6 4	4G	4g	4cc	4ee
=11	=11	=11	=11	=11	=11
4F	6 5	4F	4a	4cc	2dd
4G	n	4G	4g	4bn	.
4C;	.	4C;	4g;	4cc;	4ee;
4F	.	4F	4c	8fL	4a
.	.	.	.	8eJ	.
=12	=12	=12	=12	=12	=12
4G	7	4G	4B-	8dL	4b-
.	6	.	.	8eJ	.
8AL	6	8AL	4c	4f	4a
8B-J	.	8B-J	.	.	.
4c	4	4c	8c	4f	4g
.	.	.	16B-LL	.	.
.	.	.	16AJJ	.	.
4C	3	4C	8GL	4e	4cc
.	.	.	8cJ	.	.
=13	=13	=13	=13	=13	=13
2.F;	.	2.F;	2.c;	2.f;	2.a;
=||	=||	=||	=||	=||	=||
*-	*-	*-	*-	*-	*-
!!!system-decoration: s1,s2,s3,s4,s5
